F1 Grump/assets/track outlines/Las Vegas - White_1.svg

<svg width="3977" height="2429" viewBox="0 0 3977 2429" fill="none" xmlns="http://www.w3.org/2000/svg">
<g clip-path="url(#clip0_13_667)">
<path d="M3956.35 759.19L3977.23 2128.83C3977.27 2131.43 3977.03 2134.03 3976.52 2136.58L3963.29 2202.83C3962.25 2208.05 3960.08 2212.98 3956.94 2217.28L3928.15 2256.74C3927.45 2257.74 3926.7 2258.63 3925.91 2259.52L3790 2412.16C3786.51 2416.08 3782.21 2419.21 3777.41 2421.33C3772.6 2423.45 3767.4 2424.51 3762.15 2424.45L3678.22 2423.45L3206.96 2428.79C3206.46 2428.79 3205.96 2428.79 3205.46 2428.79L2635.21 2411.91L1697.64 2408.2C1696.35 2408.2 1695.05 2408.12 1693.77 2407.98L1524 2389.28C1523.2 2389.2 1522.39 2389.08 1521.59 2388.94L1251.11 2340.87C1249.72 2340.61 1248.35 2340.28 1247 2339.87L944.779 2249.36C944.309 2249.22 943.849 2249.07 943.379 2248.91L804.169 2201.07C802.452 2200.48 800.78 2199.76 799.169 2198.92L19.7788 1793.44C12.48 1789.64 6.66791 1783.51 3.27505 1776.01C-0.11782 1768.52 -0.894799 1760.1 1.06877 1752.11L40.2188 1592.75L40.4288 1591.91L66.8788 1494.22C67.1988 1493.04 67.5788 1491.88 68.0088 1490.74L94.3188 1421.74C96.0502 1417.2 98.6676 1413.04 102.019 1409.52L165.999 1342.19C167.708 1340.4 169.591 1338.78 171.619 1337.36L234.749 1293.36C236.574 1292.09 238.512 1290.99 240.539 1290.07L531.779 1157.51L586.619 1121.77L621.319 1079.04L643.319 1043.74L672.699 980.2L684.759 934.38L686.269 803.05L694.629 104C694.738 94.5677 698.472 85.539 705.057 78.7848C711.641 72.0306 720.572 68.0686 729.999 67.72L749.889 67C751.222 66.9497 752.558 66.9731 753.889 67.07L774.799 68.62C777.363 68.8161 779.9 69.2786 782.369 70L918.469 109.5L946.649 107.97L948.069 106.66L948.379 47.29C948.411 40.1543 950.524 33.1829 954.459 27.23L958.249 21.5C961.118 17.1771 964.866 13.5074 969.249 10.73L974.569 7.35998C978.426 4.92652 982.702 3.23107 987.179 2.35998L995.469 0.679981C998.497 0.0891445 1001.59 -0.119151 1004.67 0.0599812L1057.82 3.16998C1059.09 3.24459 1060.35 3.38477 1061.61 3.58998L1119.05 12.99C1121.44 13.3828 1123.78 14.0091 1126.05 14.86L1194.89 40.78C1197.51 41.7694 1200.02 43.0579 1202.35 44.62L1254.64 79.56C1256.04 80.4936 1257.37 81.5192 1258.64 82.63L1327.26 143.56C1329.32 145.388 1331.16 147.44 1332.76 149.68L1365.33 195.29C1366.82 197.375 1368.09 199.61 1369.11 201.96L1445.17 376.54C1447.19 381.164 1448.23 386.155 1448.23 391.2L1448.3 746.62L3421 699.74L3432.87 686.58L3442.51 672.67L3444.68 652.21L3440.62 620.4L3422.86 587.6L3403.21 567.08L3295.71 454.21C3294.33 452.768 3293.08 451.217 3291.96 449.57L3196.59 309.72C3195.68 308.386 3194.85 306.993 3194.13 305.55L3176.24 270.05C3174.24 266.081 3172.98 261.781 3172.52 257.36L3165.45 190.05C3164.87 184.462 3165.57 178.817 3167.5 173.54L3184.07 128.54C3185.66 124.197 3188.06 120.195 3191.15 116.75L3212.24 93.14C3214.96 90.0933 3218.16 87.5214 3221.73 85.53L3246 72C3251.29 69.0537 3257.23 67.4599 3263.29 67.36L3300.29 66.75C3305.17 66.6703 3310.03 67.5679 3314.56 69.39L3356 86C3359.72 87.4857 3363.16 89.5737 3366.2 92.18L3857.61 512.54C3860.16 514.716 3862.39 517.233 3864.25 520.02L3902.18 576.67C3904.24 579.748 3905.82 583.119 3906.88 586.67L3954.88 749.37C3955.81 752.561 3956.31 755.865 3956.35 759.19ZM3903.74 2126.08L3883 765.37L3838 612.86L3806 565.05L3323 151.9L3294 140.28L3273.65 140.62L3262.85 146.62L3250.53 160.42L3239.33 190.86L3244.8 242.99L3258.58 270.33L3351 405.72L3479.4 540.37C3481.67 542.737 3483.61 545.398 3485.17 548.28L3508.56 591.46C3510.71 595.446 3512.11 599.795 3512.69 604.29L3518.17 647.16C3518.52 649.991 3518.55 652.852 3518.26 655.69L3514.64 689.76C3513.98 695.868 3511.8 701.713 3508.3 706.76L3491.98 730.3C3491.07 731.599 3490.07 732.835 3489 734L3465 760.65C3461.65 764.36 3457.59 767.348 3453.05 769.432C3448.51 771.516 3443.59 772.652 3438.6 772.77L1412.45 820.93C1407.56 821.047 1402.69 820.185 1398.13 818.393C1393.58 816.602 1389.43 813.917 1385.92 810.498C1382.42 807.078 1379.64 802.993 1377.74 798.482C1375.84 793.97 1374.86 789.125 1374.86 784.23L1374.78 398.86L1303.32 234.86L1275.39 195.76L1211.75 139.25L1165.07 108L1103.59 84.85L1051.59 76.34L1021.59 74.59L1021.37 116.54C1021.34 121.835 1020.17 127.061 1017.93 131.86L1012.83 143C1010.83 147.289 1008.02 151.152 1004.56 154.38L986.919 170.78C980.631 176.628 972.492 180.085 963.919 180.55L916.229 183.12C912.106 183.347 907.974 182.873 904.009 181.72L767.619 142.16L759.619 803.91L758.069 939.76C758.037 942.775 757.631 945.775 756.859 948.69L742.859 1002.03C742.309 1004.11 741.58 1006.14 740.679 1008.09L708.999 1076.63C708.356 1078.01 707.632 1079.34 706.829 1080.63L682.419 1119.81C681.609 1121.11 680.72 1122.35 679.759 1123.54L639.989 1172.54C637.582 1175.5 634.728 1178.08 631.529 1180.16L569.529 1220.56C567.983 1221.57 566.366 1222.45 564.689 1223.22L273.999 1355.53L216.679 1395.53L160.379 1454.77L137.379 1515.23L111.529 1610.73L79.2688 1741.61L830.599 2132.52L966.539 2179.24L1266 2268.93L1533.23 2316.42L1699.84 2334.77L2635.95 2338.47H2636.89L3206.84 2355.34L3677.84 2350H3678.69L3746.31 2350.8L3869.92 2212.04L3892.92 2180.55L3903.74 2126.08Z" fill="white"/>
</g>
<defs>
<clipPath id="clip0_13_667">
<rect width="3977" height="2429" fill="white"/>
</clipPath>
</defs>
</svg>

<svg xmlns="http://www.w3.org/2000/svg" viewBox="0 0 3977.23 3200.85"><defs><style>.cls-1{fill:#fff;}</style></defs><title>Las Vegas - White_1</title><g id="Layer_2" data-name="Layer 2"><g id="Layer_1-2" data-name="Layer 1"><path class="cls-1" d="M944.32,3195.8H751.91V2846.34H790.8V3161H944.32Z"/><path class="cls-1" d="M963,3195.8l96-349.46h84.84l96,349.46h-38.38l-25.25-89.89H1026.63l-25.25,89.89Zm125.24-316.13-53,191.4h132.31l-53-191.4Z"/><path class="cls-1" d="M1387.71,2875.13q-75.75,0-75.75,57.06,0,31.82,17.42,43.69t70.7,23.73q53.26,11.88,75.5,30.81t22.22,62.36q0,107.56-111.61,107.57-36.87,0-92.41-8.59l-18.18-2.52,4-32.32q68.67,9.09,104.53,9.09,74.73,0,74.74-70.2,0-28.28-16.41-40.65t-61.36-21q-59.09-12.61-83.83-32.57t-24.74-66.91q0-93.93,112.61-93.93,36.85,0,88.38,7.57l17.17,2.53-3.54,32.83Q1417,2875.13,1387.71,2875.13Z"/><path class="cls-1" d="M1874.52,2846.34h40.39l-91.4,349.46h-86.86l-91.4-349.46h40.4l80.29,315.13h28.28Z"/><path class="cls-1" d="M1970,3195.8V2846.34h212.61v34.34H2008.84v120.7h143.42v33.84H2008.84v126.25h173.72v34.33Z"/><path class="cls-1" d="M2383.55,3051.88V3017H2480v171.7q-63.63,12.12-113.62,12.12-76.26,0-105.8-43.93T2231,3021.33q0-91.66,29.54-135.85t104.79-44.18a497,497,0,0,1,97.46,10.09l17.17,3-1.51,32.32q-62.62-10.6-108.58-10.6-58.08,0-78.27,33.58t-20.2,111.61q0,78,20.2,111.6t77.77,33.58a382.4,382.4,0,0,0,72.21-7.07V3051.88Z"/><path class="cls-1" d="M2525.45,3195.8l96-349.46h84.84l96,349.46h-38.38l-25.25-89.89H2589.08l-25.25,89.89Zm125.24-316.13-53,191.4H2730l-53-191.4Z"/><path class="cls-1" d="M2950.16,2875.13q-75.75,0-75.75,57.06,0,31.82,17.42,43.69t70.7,23.73q53.28,11.88,75.5,30.81t22.22,62.36q0,107.56-111.61,107.57-36.87,0-92.41-8.59l-18.18-2.52,4-32.32q68.67,9.09,104.53,9.09,74.73,0,74.74-70.2,0-28.28-16.41-40.65t-61.36-21q-59.09-12.61-83.83-32.57T2835,2934.72q0-93.93,112.61-93.93,36.85,0,88.38,7.57l17.17,2.53-3.54,32.83Q2979.44,2875.13,2950.16,2875.13Z"/><path class="cls-1" d="M3956.35,759.19v0l20.88,1369.64a36.66,36.66,0,0,1-.71,7.75l-13.23,66.25a36.65,36.65,0,0,1-6.35,14.45l-28.79,39.46c-.7,1-1.45,1.89-2.24,2.78L3790,2412.16a36.69,36.69,0,0,1-27.85,12.29l-83.93-1-471.26,5.34c-.5,0-1,0-1.5,0l-570.25-16.88-937.57-3.71a35.71,35.71,0,0,1-3.87-.22L1524,2389.28c-.8-.08-1.61-.2-2.41-.34l-270.48-48.07a37.81,37.81,0,0,1-4.11-1l-302.22-90.51c-.47-.14-.93-.29-1.4-.45l-139.21-47.84a37,37,0,0,1-5-2.15L19.78,1793.44a36.71,36.71,0,0,1-18.71-41.33l39.15-159.36.21-.84,26.45-97.69c.32-1.18.7-2.34,1.13-3.48l26.31-69a36.68,36.68,0,0,1,7.7-12.22L166,1342.19a37.51,37.51,0,0,1,5.62-4.83l63.13-44a36.3,36.3,0,0,1,5.79-3.29l291.24-132.56,54.84-35.74,34.7-42.73,22-35.3,29.38-63.54,12.06-45.82,1.51-131.33L694.63,104A36.73,36.73,0,0,1,730,67.72L749.89,67a36.27,36.27,0,0,1,4,.07l20.91,1.55A37.07,37.07,0,0,1,782.37,70l136.1,39.5,28.18-1.53,1.42-1.31.31-59.37a36.68,36.68,0,0,1,6.08-20.06l3.79-5.73a36.93,36.93,0,0,1,11-10.77l5.32-3.37a36.81,36.81,0,0,1,12.61-5L995.47.68a36.87,36.87,0,0,1,9.2-.62l53.15,3.11a36.91,36.91,0,0,1,3.79.42l57.44,9.4a37,37,0,0,1,7,1.87l68.84,25.92a36.55,36.55,0,0,1,7.46,3.84l52.29,34.94a38,38,0,0,1,4,3.07l68.62,60.93a36.74,36.74,0,0,1,5.5,6.12l32.57,45.61a36.58,36.58,0,0,1,3.78,6.67l76.06,174.58a36.66,36.66,0,0,1,3.06,14.66l.07,355.42L3421,699.74l11.87-13.16,9.64-13.91,2.17-20.46-4.06-31.81-17.76-32.8-19.65-20.52L3295.71,454.21a36.41,36.41,0,0,1-3.75-4.64l-95.37-139.85a36.21,36.21,0,0,1-2.46-4.17l-17.89-35.5a36.63,36.63,0,0,1-3.72-12.69l-7.07-67.31a37.08,37.08,0,0,1,2.05-16.51l16.57-45a36.47,36.47,0,0,1,7.08-11.79l21.09-23.61a36.72,36.72,0,0,1,9.49-7.61L3246,72a36.8,36.8,0,0,1,17.29-4.64l37-.61a36.66,36.66,0,0,1,14.27,2.64L3356,86a36.43,36.43,0,0,1,10.2,6.18l491.41,420.36a36.41,36.41,0,0,1,6.64,7.48l37.93,56.65a36.84,36.84,0,0,1,4.7,10l48,162.7A36.45,36.45,0,0,1,3956.35,759.19Zm-52.61,1366.89L3883,765.37l-45-152.51-32-47.81L3323,151.9l-29-11.62-20.35.34-10.8,6-12.32,13.8-11.2,30.44,5.47,52.13,13.78,27.34L3351,405.72l128.4,134.65a36.72,36.72,0,0,1,5.77,7.91l23.39,43.18a36.78,36.78,0,0,1,4.13,12.83l5.48,42.87a38,38,0,0,1,.09,8.53l-3.62,34.07a36.69,36.69,0,0,1-6.34,17l-16.32,23.54A35.39,35.39,0,0,1,3489,734l-24,26.65a36.71,36.71,0,0,1-26.4,12.12L1412.45,820.93a36.71,36.71,0,0,1-37.59-36.7l-.08-385.37-71.46-164-27.93-39.1-63.64-56.51L1165.07,108l-61.48-23.15-52-8.51-30-1.75-.22,41.95a36.73,36.73,0,0,1-3.44,15.32L1012.83,143a36.9,36.9,0,0,1-8.27,11.38l-17.64,16.4a36.69,36.69,0,0,1-23,9.77l-47.69,2.57a36.56,36.56,0,0,1-12.22-1.4L767.62,142.16l-8,661.75-1.55,135.85a36.39,36.39,0,0,1-1.21,8.93l-14,53.34a37.1,37.1,0,0,1-2.18,6.06L709,1076.63a37.79,37.79,0,0,1-2.17,4l-24.41,39.18a37.65,37.65,0,0,1-2.66,3.73l-39.77,49a36.74,36.74,0,0,1-8.46,7.62l-62,40.4a37.3,37.3,0,0,1-4.84,2.66L274,1355.53l-57.32,40-56.3,59.24-23,60.46-25.85,95.5L79.27,1741.61,830.6,2132.52l135.94,46.72L1266,2268.93l267.23,47.49,166.61,18.35,936.11,3.7.94,0,569.95,16.87,471-5.34h.85l67.62.8,123.61-138.76,23-31.49Z"/></g></g></svg>
